src/assets/images/beat-boxer/HEAVY_BAG_RED.svg

<svg width="159" height="592" viewBox="0 0 159 592" fill="none" xmlns="http://www.w3.org/2000/svg">
<g clip-path="url(#clip0_9279_207001)">
<path d="M79.2093 426.21C96.5393 426.21 110.639 412.11 110.639 394.78C110.639 377.45 96.5393 363.35 79.2093 363.35C61.8793 363.35 47.7793 377.45 47.7793 394.78C47.7793 412.11 61.8793 426.21 79.2093 426.21ZM79.2093 377.37C88.8293 377.37 96.6193 385.17 96.6193 394.78C96.6193 404.39 88.8193 412.19 79.2093 412.19C69.5993 412.19 61.7993 404.39 61.7993 394.78C61.7993 385.17 69.5993 377.37 79.2093 377.37Z" fill="white"/>
<path d="M15.25 469.38H143.18V320.16H15.25V469.38ZM79.21 348.34C104.85 348.34 125.64 369.13 125.64 394.77C125.64 420.41 104.85 441.2 79.21 441.2C53.57 441.2 32.78 420.41 32.78 394.77C32.78 369.13 53.57 348.34 79.21 348.34Z" fill="white"/>
<path d="M143.18 484.63H15.25V500.73H143.18V484.63Z" fill="white"/>
<path d="M143.18 288.81H15.25V304.92H143.18V288.81Z" fill="white"/>
<path d="M15.25 529.33C15.25 545.65 24.38 560.6 38.5 567.4C64.37 579.86 94.05 579.86 119.92 567.4C134.05 560.59 143.18 545.65 143.18 529.33V515.99H15.25V529.33Z" fill="white"/>
<path d="M119.57 201.34C119.57 199.57 118.16 198.11 116.41 198.03H116.03C114.3 198.14 112.92 199.59 112.92 201.34V247.07H119.57V201.34Z" fill="white"/>
<path d="M134.8 262.57H97.66V214.74C85.55 212.3 72.86 212.3 60.74 214.74V262.57H23.61V234.68C18.24 241.99 15.25 251.01 15.25 260.24V273.56H143.18V260.24C143.18 251 140.19 241.98 134.82 234.67L134.8 262.56V262.57Z" fill="white"/>
<path d="M45.4998 201.34C45.4998 199.51 44.0098 198.02 42.1698 198.02C40.3298 198.02 38.8398 199.51 38.8398 201.34V247.07H45.4898V201.34H45.4998Z" fill="white"/>
<path d="M134.82 213.48V201.34C134.82 192.59 128.77 185.14 120.29 183.26L86.84 141.43V7.62C86.84 3.42 83.42 0 79.22 0C75.02 0 71.6 3.42 71.6 7.62V141.43L38.15 183.26C29.67 185.14 23.62 192.6 23.62 201.34V213.48C8.8 224.19 0 241.57 0 260.25V529.63C0.11 551.65 12.6 571.85 31.88 581.14C46.92 588.38 63.07 592 79.21 592C95.35 592 111.5 588.38 126.53 581.14C145.9 571.81 158.42 551.47 158.42 529.33V260.25C158.42 241.57 149.62 224.19 134.82 213.48ZM112.92 201.34C112.92 199.58 114.3 198.13 116.03 198.03H116.41C118.17 198.11 119.57 199.57 119.57 201.34V247.07H112.92V201.34ZM79.21 156.31L104.06 187.37C100.56 190.41 98.33 194.62 97.8 199.21C91.63 198.14 85.42 197.6 79.22 197.6C73.02 197.6 66.81 198.14 60.64 199.21C60.11 194.62 57.88 190.41 54.38 187.37L79.23 156.31H79.21ZM38.85 201.34C38.85 199.51 40.34 198.02 42.18 198.02C44.02 198.02 45.51 199.51 45.51 201.34V247.07H38.86V201.34H38.85ZM143.18 529.33C143.18 545.65 134.05 560.59 119.92 567.4C94.05 579.86 64.38 579.86 38.5 567.4C24.37 560.59 15.25 545.65 15.25 529.33V515.99H143.18V529.33ZM143.18 500.74H15.25V484.64H143.18V500.74ZM143.18 469.39H15.25V320.17H143.18V469.39ZM143.18 304.93H15.25V288.82H143.18V304.93ZM143.18 273.58H15.25V260.26C15.25 251.02 18.24 242 23.6 234.7V262.59H60.74V214.76C72.86 212.32 85.55 212.32 97.66 214.76V262.59H134.79L134.81 234.7C140.18 242.01 143.17 251.03 143.17 260.27V273.59L143.18 273.58Z" fill="#EB0000"/>
<path d="M79.2093 441.21C104.849 441.21 125.639 420.42 125.639 394.78C125.639 369.14 104.849 348.35 79.2093 348.35C53.5693 348.35 32.7793 369.14 32.7793 394.78C32.7793 420.42 53.5693 441.21 79.2093 441.21ZM79.2093 363.34C96.5393 363.34 110.639 377.44 110.639 394.77C110.639 412.1 96.5393 426.2 79.2093 426.2C61.8793 426.2 47.7793 412.1 47.7793 394.77C47.7793 377.44 61.8793 363.34 79.2093 363.34Z" fill="#EB0000"/>
<path d="M91.522 407.092C98.3211 400.293 98.3211 389.27 91.522 382.471C84.723 375.672 73.6996 375.672 66.9006 382.471C60.1015 389.27 60.1015 400.293 66.9006 407.092C73.6996 413.891 84.723 413.892 91.522 407.092Z" fill="#EB0000"/>
</g>
<defs>
<clipPath id="clip0_9279_207001">
<rect width="158.42" height="592" fill="white"/>
</clipPath>
</defs>
</svg>

<?xml version="1.0" encoding="UTF-8"?><svg id="Layer_2" xmlns="http://www.w3.org/2000/svg" viewBox="0 0 158.42 592"><defs><style>.cls-1{fill:#fff;}.cls-2{fill:#e91d25;}</style></defs><g id="Layer_1-2"><g><g><path class="cls-1" d="M79.21,426.21c17.33,0,31.43-14.1,31.43-31.43s-14.1-31.43-31.43-31.43-31.43,14.1-31.43,31.43,14.1,31.43,31.43,31.43Zm0-48.84c9.62,0,17.41,7.8,17.41,17.41s-7.8,17.41-17.41,17.41-17.41-7.8-17.41-17.41,7.8-17.41,17.41-17.41Z"/><path class="cls-1" d="M15.25,469.38h127.93v-149.22H15.25v149.22Zm63.96-121.04c25.64,0,46.43,20.79,46.43,46.43s-20.79,46.43-46.43,46.43-46.43-20.79-46.43-46.43,20.79-46.43,46.43-46.43Z"/><rect class="cls-1" x="15.25" y="484.63" width="127.93" height="16.1"/><rect class="cls-1" x="15.25" y="288.81" width="127.93" height="16.11"/><path class="cls-1" d="M15.25,529.33c0,16.32,9.13,31.27,23.25,38.07,25.87,12.46,55.55,12.46,81.42,0,14.13-6.81,23.26-21.75,23.26-38.07v-13.34H15.25v13.34Z"/><path class="cls-1" d="M119.57,201.34c0-1.77-1.41-3.23-3.16-3.31h-.38c-1.73,.11-3.11,1.56-3.11,3.31v45.73h6.65v-45.73Z"/><path class="cls-1" d="M134.8,262.57h-37.14v-47.83c-12.11-2.44-24.8-2.44-36.92,0v47.83H23.61v-27.89c-5.37,7.31-8.36,16.33-8.36,25.56v13.32h127.93v-13.32c0-9.24-2.99-18.26-8.36-25.57l-.02,27.89Z"/><path class="cls-1" d="M45.5,201.34c0-1.83-1.49-3.32-3.33-3.32s-3.33,1.49-3.33,3.32v45.73h6.65v-45.73Z"/></g><path class="cls-2" d="M134.82,213.48v-12.14c0-8.75-6.05-16.2-14.53-18.08l-33.45-41.83V7.62c0-4.2-3.42-7.62-7.62-7.62s-7.62,3.42-7.62,7.62V141.43l-33.45,41.83c-8.48,1.88-14.53,9.34-14.53,18.08v12.14C8.8,224.19,0,241.57,0,260.25v269.38H0c.11,22.02,12.6,42.22,31.88,51.51,15.04,7.24,31.19,10.86,47.33,10.86s32.29-3.62,47.32-10.86c19.37-9.33,31.89-29.67,31.89-51.81V260.25c0-18.68-8.8-36.06-23.6-46.77Zm-21.9-12.14c0-1.76,1.38-3.21,3.11-3.31h.38c1.76,.08,3.16,1.54,3.16,3.31v45.73h-6.65v-45.73Zm-33.71-45.03l24.85,31.06c-3.5,3.04-5.73,7.25-6.26,11.84-6.17-1.07-12.38-1.61-18.58-1.61s-12.41,.54-18.58,1.61c-.53-4.59-2.76-8.8-6.26-11.84l24.85-31.06Zm-40.36,45.03c0-1.83,1.49-3.32,3.33-3.32s3.33,1.49,3.33,3.32v45.73h-6.65v-45.73Zm104.33,327.99c0,16.32-9.13,31.26-23.26,38.07-25.87,12.46-55.54,12.46-81.42,0-14.13-6.81-23.25-21.75-23.25-38.07v-13.34h127.93v13.34Zm0-28.59H15.25v-16.1h127.93v16.1Zm0-31.35H15.25v-149.22h127.93v149.22Zm0-164.46H15.25v-16.11h127.93v16.11Zm0-31.35H15.25v-13.32c0-9.24,2.99-18.26,8.35-25.56v27.89H60.74v-47.83c12.12-2.44,24.81-2.44,36.92,0v47.83h37.13l.02-27.89c5.37,7.31,8.36,16.33,8.36,25.57v13.32Z"/><path class="cls-2" d="M79.21,441.21c25.64,0,46.43-20.79,46.43-46.43s-20.79-46.43-46.43-46.43-46.43,20.79-46.43,46.43,20.79,46.43,46.43,46.43Zm0-77.87c17.33,0,31.43,14.1,31.43,31.43s-14.1,31.43-31.43,31.43-31.43-14.1-31.43-31.43,14.1-31.43,31.43-31.43Z"/><circle class="cls-2" cx="79.21" cy="394.78" r="17.41" transform="translate(-255.95 171.64) rotate(-45)"/></g></g></svg>
